ui/StatusQ/src/assets/img/icons/tiny/channel-unlocked-white.svg

<svg fill="none" height="16" viewBox="0 0 16 16" width="16" xmlns="http://www.w3.org/2000/svg"><g clip-rule="evenodd" fill="#fff" fill-rule="evenodd"><path d="m6.14689 2.61886c.0725-.40782.46188-.67965.86969-.60716.40782.0725.67966.46188.60716.8697l-.24095 1.35539c-.0708.39826.23546.76377.63996.76377h1.975c.31505 0 .58485-.226.63995-.53623l.3281-1.84547c.0725-.40782.4619-.67965.8697-.60716.4078.0725.6796.46188.6071.8697l-.2409 1.35539c-.0708.39826.2354.76377.64.76377h1.2101c.4142 0 .75.33579.75.75 0 .41422-.3358.75-.75.75h-1.7079c-.3151 0-.5848.226-.64.53623l-.2045 1.34957c-.064.42208-.2614.81262-.5632 1.11448l-.5353.53526-.42402.395c-.37018.3448-.85728.5365-1.36319.5365h-1.88281c-.31509 0-.58481.226-.63996.5363l-.34329 1.931c-.0725.4079-.46188.6797-.8697.6072-.40781-.0725-.67965-.4619-.60715-.8697l.25617-1.441c.0708-.3983-.23546-.7638-.63996-.7638h-1.13699c-.41421 0-.75-.3358-.75-.75 0-.41419.33579-.74998.75-.74998h1.63474c.3151 0 .58482-.226.63997-.53623l.29635-1.66706c.0708-.39826-.23546-.76377-.63996-.76377h-1.1995c-.41421 0-.75-.33579-.75-.75s.33579-.75.75-.75h1.69725c.3151 0 .58482-.226.63997-.53623zm3.99311 4.64547-.29639 1.66706c-.05515.31023-.32487.53623-.63997.53623h-1.975c-.4045 0-.71076-.36551-.63996-.76377l.29635-1.66706c.05515-.31023.32487-.53623.63997-.53623h1.975c.4045 0 .7108.36551.64.76377z"/><path d="m12.035 10c-.6484 0-1.1685.543-1.2173 1.221h.5659c.0443-.376.3248-.6575.6514-.6575.3561 0 .6574.3348.6574.7618v.7097h-1.0644-.814-.2035c-.3372 0-.6105.2733-.6105.6105v1.221c0 .3372.2733.6105.6105.6105h2.849c.3372 0 .6105-.2733.6105-.6105v-1.221c0-.3372-.2733-.6105-.6105-.6105h-.2035v-.7096c0-.7258-.5397-1.3254-1.221-1.3254z"/></g></svg>

<svg width="16" height="16" viewBox="0 0 16 16" fill="none" xmlns="http://www.w3.org/2000/svg">
<path fill-rule="evenodd" clip-rule="evenodd" d="M6.14689 2.61886C6.21939 2.21104 6.60877 1.93921 7.01658 2.0117C7.4244 2.0842 7.69624 2.47358 7.62374 2.8814L7.38279 4.23679C7.31199 4.63505 7.61825 5.00056 8.02275 5.00056H9.99775C10.3128 5.00056 10.5826 4.77456 10.6377 4.46433L10.9658 2.61886C11.0383 2.21104 11.4277 1.93921 11.8355 2.0117C12.2433 2.0842 12.5151 2.47358 12.4426 2.8814L12.2017 4.23679C12.1309 4.63505 12.4371 5.00056 12.8417 5.00056H14.0518C14.466 5.00056 14.8018 5.33635 14.8018 5.75056C14.8018 6.16478 14.466 6.50056 14.0518 6.50056H12.3439C12.0288 6.50056 11.7591 6.72656 11.7039 7.03679L11.4994 8.38636C11.4354 8.80844 11.238 9.19898 10.9362 9.50084L10.4009 10.0361L9.97688 10.4311C9.6067 10.7759 9.1196 10.9676 8.61369 10.9676H6.73088C6.41579 10.9676 6.14607 11.1936 6.09092 11.5039L5.74763 13.4349C5.67513 13.8428 5.28575 14.1146 4.87793 14.0421C4.47012 13.9696 4.19828 13.5802 4.27078 13.1724L4.52695 11.7314C4.59775 11.3331 4.29149 10.9676 3.88699 10.9676H2.75C2.33579 10.9676 2 10.6318 2 10.2176C2 9.80341 2.33579 9.46762 2.75 9.46762H4.38474C4.69984 9.46762 4.96956 9.24162 5.02471 8.93139L5.32106 7.26433C5.39186 6.86607 5.0856 6.50056 4.6811 6.50056H3.4816C3.06739 6.50056 2.7316 6.16477 2.7316 5.75056C2.7316 5.33635 3.06739 5.00056 3.4816 5.00056H5.17885C5.49395 5.00056 5.76367 4.77456 5.81882 4.46433L6.14689 2.61886ZM10.14 7.26433L9.84361 8.93139C9.78846 9.24162 9.51874 9.46762 9.20364 9.46762L7.22864 9.46762C6.82414 9.46762 6.51788 9.10211 6.58868 8.70385L6.88503 7.03679C6.94018 6.72656 7.2099 6.50056 7.525 6.50056L9.5 6.50056C9.9045 6.50056 10.2108 6.86607 10.14 7.26433Z" fill="white"/>
<path fill-rule="evenodd" clip-rule="evenodd" d="M12.035 10C11.3866 10 10.8665 10.543 10.8177 11.221H11.3836C11.4279 10.845 11.7084 10.5635 12.035 10.5635C12.3911 10.5635 12.6924 10.8983 12.6924 11.3253V12.035H11.628V12.035L10.814 12.035H10.6105C10.2733 12.035 10 12.3083 10 12.6455V13.8665C10 14.2037 10.2733 14.477 10.6105 14.477H13.4595C13.7967 14.477 14.07 14.2037 14.07 13.8665V12.6455C14.07 12.3083 13.7967 12.035 13.4595 12.035H13.256V11.3254C13.256 10.5996 12.7163 10 12.035 10Z" fill="white"/>
</svg>
